X: 040657
T: Foynes Jig
T: Dawn's Jig
C: Martin Mulvihill
S: Mike Rafferty
Z: Lesl (via IRTRAD)
M: 6/8
K: Dmix
D2E |: F2F EFE | DFA d2A | ded cAG | FAF GFE |
F2F EFE | DFA d2f | edc AB^c | dfe d2e:|
f2a g2e | fdB ABc | B2B EFG | AAD FED | 
f2a gge | fdB ABc | Bcd e^cA | dfe d2e :|
